X:5
T:[Aunt Mary's Canadian Jig]
S:Flos Headford <flos:madasafish.com> tradtunes 2010-4-7
C:not known
R:jig 32
Z:PJHeadford
M:6/8
L:1/8
Q:3/8=120
K:G
a3 | bbb b2a | ggg g2B | ddd d2B |\ 
cBc A3 | aaa a2g | fff f2e | dcd d^c=c | B3- B2d | 
bbb b2a | ggg g2B | ddd d2B | cBc A3 |\ 
aaa a2g | f3- f2e | d^cd e2f | (g3 B2)c | 
ddd dBc | ddd d^cd | g2f g2B | c3 A2g |\ 
aaa a2g | f3- f2e | ddd edc | B3- B2d | 
ddd dBc | ddd d^cd | g2f g2B | c3 A2g |\ 
aaa a2g | f3- f2e | d^cd e2f | g3 |] 

